X:1
T:Title
%%score 1 { ( 2 4 ) | ( 3 5 ) }
L:1/8
M:4/4
K:Bb
V:1 treble nm="Akkordion"
V:2 treble nm="Grand Piano"
V:4 treble 
V:3 bass 
V:5 bass 
V:1
 z4 z2[Q:1/4=88] B,C | DFAG GFGA |[M:3/4] G2 D2 F2 |[M:1/4] CD |[M:4/4] EGBA AGBG | %5
[M:3/4] F2 C2 F2 |[M:1/4] B,C |[M:4/4] DFAG GFDE |[M:3/4] F2 B,2 B2 |[M:1/4] cB | %10
[M:4/4] FGAB ddBB |[M:7/8] B2 B2 c3 |[M:1/4] z2 |[M:4/4] z8 |[M:3/4] z6 |[M:1/4] z2 |[M:4/4] z8 | %17
[M:3/4] z6 |[M:1/4] z2 |[M:4/4] z8 |[M:3/4] z6 |[M:1/4] z2 | %22
[M:9/8] z9[Q:1/4=87][Q:1/4=85][Q:1/4=84][Q:1/4=83][Q:1/4=82][Q:1/4=80][Q:1/4=79][Q:1/4=78][Q:1/4=76][Q:1/4=75][Q:1/4=74][Q:1/4=72][Q:1/4=71][Q:1/4=70][Q:1/4=69][Q:1/4=67] | %23
[M:3/4] z6 |] %24
V:2
 z8 | [B,DF]2 [B,DF]2 [B,DF]2 [B,DF]2 |[M:3/4] [B,DG]2 [B,DF]2 [A,EF]2 |[M:1/4] z2 | %4
[M:4/4] [CEG]2 [CEG]2 [CEG]2 [CEG]2 |[M:3/4] [A,EF]2 [A,EF]2 [A,EF]2 |[M:1/4] z2 | %7
[M:4/4] [B,DF]2 [B,DF]2 [B,DF]2 [B,DF]2 |[M:3/4] [B,DF]2 [B,DF]2 [B,_DB]2 |[M:1/4] z2 | %10
[M:4/4] [B,DF]2 .[B,DF]2 [FBd]2 B2 |[M:7/8] B2 B2 c3 |[M:1/4] [Fd][Ec] | %13
[M:4/4] [Ec][DB][Ec][Fd] [EG][DF][EG][FB] |[M:3/4] [FA]6 |[M:1/4] ed |[M:4/4] dc=Bc dcAF | %17
[M:3/4] [Fd]6 |[M:1/4] [Fd][Ec] |[M:4/4] [Ec][DB][Ec][Fd] [EG][DF][_D=E][=DF] | %20
[M:3/4] GG eG [EG][DF] |[M:1/4] FF |[M:9/8] [Fd][Fd]>F- F/F[Bf][Bf]/- [Bf][Fd][Ec] | %23
[M:3/4] [DB]6 |] %24
V:3
 z4 z2 B,,C, | D,F,A,G, G,F,G,A, |[M:3/4] G,2 D,2 F,2 |[M:1/4] C,D, |[M:4/4] E,G,B,A, A,G,B,G, | %5
[M:3/4] F,2 C,2 F,,2 |[M:1/4] B,,C, |[M:4/4] D,F,A,G, G,F,D,E, |[M:3/4] F,2 B,,2 [G,,=E,]2 | %9
[M:1/4] CB, |[M:4/4] F,G,A,B, DD [F,DF]2 |[M:7/8] [G,C=E]2 [^F,_DE]2 [=F,A,_E]3 | %12
[M:1/4] [B,,B,][B,,F,] |[M:4/4] [A,,F,][B,,F,][A,,F,][B,,F,] [B,,B,][B,,B,][E,B,][D,B,] | %14
[M:3/4] [F,C]2 F,F, F,2 |[M:1/4] [F,A,F][F,B,F] | %16
[M:4/4] [F,B,F][F,A,E][F,_A,D][F,=A,E] [F,B,F][F,A,F][F,CF][F,A,] |[M:3/4] B,2- [D,B,-][F,B,] B,2 | %18
[M:1/4] [B,,B,][B,,F,] |[M:4/4] [A,,F,][B,,F,][A,,F,][B,,F,] [B,,B,][B,,B,][B,,G,][B,,B,] | %20
[M:3/4] [E,B,E][E,B,E] [E,G,E][E,B,E] [B,,B,][B,,B,] |[M:1/4] F,F, | %22
[M:9/8] [B,,B,][B,,B,]>F,- F,/F,[F,D][F,D]/- [F,D][F,B,][F,A,] |[M:3/4] [B,,B,]6 |] %24
V:4
 x8 | x8 |[M:3/4] x6 |[M:1/4] x2 |[M:4/4] x8 |[M:3/4] x6 |[M:1/4] x2 |[M:4/4] x8 |[M:3/4] x6 | %9
[M:1/4] x2 |[M:4/4] x8 |[M:7/8] x7 |[M:1/4] x2 |[M:4/4] x8 |[M:3/4] z2 ED C2 |[M:1/4] x2 | %16
[M:4/4] x8 |[M:3/4] x6 |[M:1/4] x2 |[M:4/4] x8 |[M:3/4] x6 |[M:1/4] x2 |[M:9/8] x9 |[M:3/4] x6 |] %24
V:5
 x8 | x8 |[M:3/4] x6 |[M:1/4] x2 |[M:4/4] x8 |[M:3/4] x6 |[M:1/4] x2 |[M:4/4] x8 |[M:3/4] x6 | %9
[M:1/4] x2 |[M:4/4] x8 |[M:7/8] x7 |[M:1/4] x2 |[M:4/4] x8 |[M:3/4] x6 |[M:1/4] x2 |[M:4/4] x8 | %17
[M:3/4] B,,2 z2 z2 |[M:1/4] x2 |[M:4/4] x8 |[M:3/4] x6 |[M:1/4] x2 |[M:9/8] x9 |[M:3/4] x6 |] %24

